X:31
T:Miss Galvin
R:hornpipe
D:Mary Bergin: Feadoga Stain
D:Paul McGrattan & Paul O'Shaughnessy: Within a Mile from Dublin (B flute)
Z:id:hn-hornpipe-31
M:C|
K:D
fe|d2cA GEFE|D2FA DAFA|d2cA GE~E2|(3Bcd eg fdec|
d2cA GEFE|D2FA DAFA|d2cA GE~E2|cdec d2||
de|fgaf d2de|fgaf gbag|fgaf dcA2|(3Bcd ef ~g3e|
fgaf d2de|fgaf gbag|fAeA dcA2|(3Bcd ef g2||

